static/img/monitor-window.svg

<svg viewBox="0 0 100 100" xmlns="http://www.w3.org/2000/svg"><path d="m90 50a40 40 0 1 0 -76.44 16.5h72.88a39.85 39.85 0 0 0 3.56-16.5z" fill="#e8f4fa"/><path d="m13.56 66.5a40 40 0 0 0 72.88 0z" fill="#fff"/><path d="m11 66.5h78" fill="none" stroke="#45413c" stroke-linecap="round" stroke-linejoin="round"/><path d="m6.5 66.5h2.5" fill="none" stroke="#45413c" stroke-linecap="round" stroke-linejoin="round"/><path d="m91 66.5h2.5" fill="none" stroke="#45413c" stroke-linecap="round" stroke-linejoin="round"/><rect fill="#00b8f0" height="34.5" rx="3.6" width="48.3" x="23.15" y="35.36"/><path d="m52.36 35.36h-25.07a4.14 4.14 0 0 0 -4.14 4.15v25.07z" fill="#4acfff"/><path d="m37 56.76a2.77 2.77 0 0 1 -2.81-2.76v-.45l-2.76 2.75v.46a2.77 2.77 0 0 0 2.76 2.76h34.5a2.77 2.77 0 0 0 2.76-2.76z" fill="#009fd9"/><path d="m34.19 35.37h-2.76v20.93l2.76-2.76z" fill="#009fd9"/><rect fill="none" height="34.5" rx="3.6" stroke="#45413c" stroke-linecap="round" stroke-linejoin="round" width="48.3" x="23.15" y="35.36"/><path d="m67.31 69.86a4.14 4.14 0 0 0 4.14-4.13v-1.38h-48.3v1.38a4.13 4.13 0 0 0 4.14 4.13z" fill="#fff" stroke="#45413c" stroke-linecap="round" stroke-linejoin="round"/><path d="m51.44 75.39h-8.28l.69-5.53h6.9z" fill="#e0e0e0"/><path d="m51.01 71.94h-7.42l.26-2.08h6.9z" fill="#87898c"/><g stroke="#45413c" stroke-linejoin="round"><path d="m51.44 75.39h-8.28l.69-5.53h6.9z" fill="none" stroke-linecap="round"/><path d="m56.27 78.15h-17.94a2.75 2.75 0 0 1 2.76-2.76h12.42a2.76 2.76 0 0 1 2.76 2.76z" fill="#fff" stroke-linecap="round"/><path d="m34.19 30.54h40a0 0 0 0 1 0 0v23.82a2.4 2.4 0 0 1 -2.4 2.4h-35.2a2.4 2.4 0 0 1 -2.4-2.4v-23.82a0 0 0 0 1 0 0z" fill="#daedf7" stroke-linecap="round"/><path d="m36.59 22.26h35.22a2.4 2.4 0 0 1 2.4 2.4v5.88a0 0 0 0 1 0 0h-40a0 0 0 0 1 0 0v-5.89a2.4 2.4 0 0 1 2.38-2.39z" fill="#fff" stroke-linecap="round"/><circle cx="38.33" cy="26.4" fill="#ff6242" r="1.38" stroke-linecap="round"/><circle cx="43.85" cy="26.4" fill="#fff48c" r="1.38" stroke-linecap="round"/><circle cx="49.37" cy="26.4" fill="#6dd627" r="1.38" stroke-linecap="round"/><rect fill="#6dd627" height="5.52" rx="1" stroke-linecap="round" width="5.52" x="46.61" y="38.81"/><rect fill="#ff6242" height="5.52" rx="1" stroke-linecap="round" width="5.52" x="55.58" y="38.81"/><rect fill="#6dd627" height="5.52" rx="1" stroke-linecap="round" width="5.52" x="64.55" y="38.81"/><rect fill="#ff6242" height="5.52" rx="1" stroke-linecap="round" width="5.52" x="46.61" y="47.1"/><rect fill="#6dd627" height="5.52" rx="1" stroke-linecap="round" width="5.52" x="55.58" y="47.1"/><rect fill="#ffe500" height="5.52" rx="1" stroke-linecap="round" width="5.52" x="64.55" y="47.1"/><rect fill="#00b8f0" height="2.76" rx="1" stroke-linecap="round" width="5.52" x="38.33" y="33.3"/><rect fill="#00b8f0" height="2.76" rx="1" width="23.46" x="46.61" y="33.3"/><path d="m38.33 38.81h5.52" fill="none" stroke-linecap="round"/><path d="m38.33 41.57h5.52" fill="none" stroke-linecap="round"/><path d="m38.33 44.34h5.52" fill="none" stroke-linecap="round"/><path d="m38.33 47.1h5.52" fill="none" stroke-linecap="round"/><path d="m38.33 49.85h5.52" fill="none" stroke-linecap="round"/><path d="m38.33 52.61h3.45" fill="none" stroke-linecap="round"/><path d="m83.18 67.72c-.2.73-.6.76-.89.06l-4.53-10.87c-.29-.7 0-1 .75-.74l10.86 4.53c.7.29.67.69-.06.89l-3.48.95a2.7 2.7 0 0 0 -1.7 1.69z" fill="#fff"/><circle cx="47.3" cy="67.1" fill="#daedf7" r=".58" stroke-linecap="round"/></g></svg>

<svg id="Layer_1" data-name="Layer 1" xmlns="http://www.w3.org/2000/svg" viewBox="0 0 100 100"><defs><style>.cls-1{fill:#e8f4fa;}.cls-17,.cls-2,.cls-7{fill:#fff;}.cls-3{fill:none;}.cls-10,.cls-11,.cls-12,.cls-13,.cls-14,.cls-15,.cls-16,.cls-17,.cls-3,.cls-7{stroke:#45413c;stroke-linejoin:round;}.cls-10,.cls-11,.cls-12,.cls-13,.cls-14,.cls-15,.cls-3,.cls-7{stroke-linecap:round;}.cls-15,.cls-16,.cls-4{fill:#00b8f0;}.cls-5{fill:#4acfff;}.cls-6{fill:#009fd9;}.cls-8{fill:#e0e0e0;}.cls-9{fill:#87898c;}.cls-10{fill:#daedf7;}.cls-11{fill:#ff6242;}.cls-12{fill:#fff48c;}.cls-13{fill:#6dd627;}.cls-14{fill:#ffe500;}</style></defs><title>monitor-window</title><g id="_Group_" data-name="&lt;Group&gt;"><path class="cls-1" d="M90,50A40,40,0,1,0,13.56,66.5H86.44A39.85,39.85,0,0,0,90,50Z"/><path class="cls-2" d="M13.56,66.5a40,40,0,0,0,72.88,0Z"/><line class="cls-3" x1="11" y1="66.5" x2="89" y2="66.5"/><line class="cls-3" x1="6.5" y1="66.5" x2="9" y2="66.5"/><line class="cls-3" x1="91" y1="66.5" x2="93.5" y2="66.5"/></g><rect class="cls-4" x="23.15" y="35.36" width="48.3" height="34.5" rx="3.6" ry="3.6"/><path class="cls-5" d="M52.36,35.36H27.29a4.14,4.14,0,0,0-4.14,4.15V64.58Z"/><path class="cls-6" d="M37,56.76A2.77,2.77,0,0,1,34.19,54v-.45L31.43,56.3v.46a2.77,2.77,0,0,0,2.76,2.76h34.5a2.77,2.77,0,0,0,2.76-2.76Z"/><polygon class="cls-6" points="34.19 35.37 31.43 35.37 31.43 56.3 34.19 53.54 34.19 35.37"/><rect class="cls-3" x="23.15" y="35.36" width="48.3" height="34.5" rx="3.6" ry="3.6"/><path class="cls-7" d="M67.31,69.86a4.14,4.14,0,0,0,4.14-4.13V64.35H23.15v1.38a4.13,4.13,0,0,0,4.14,4.13Z"/><polygon class="cls-8" points="51.44 75.39 43.16 75.39 43.85 69.86 50.75 69.86 51.44 75.39"/><polygon class="cls-9" points="51.01 71.94 43.59 71.94 43.85 69.86 50.75 69.86 51.01 71.94"/><polygon class="cls-3" points="51.44 75.39 43.16 75.39 43.85 69.86 50.75 69.86 51.44 75.39"/><path class="cls-7" d="M56.27,78.15H38.33a2.75,2.75,0,0,1,2.76-2.76H53.51A2.76,2.76,0,0,1,56.27,78.15Z"/><path class="cls-10" d="M34.19,30.54h40a0,0,0,0,1,0,0V54.36a2.4,2.4,0,0,1-2.4,2.4H36.59a2.4,2.4,0,0,1-2.4-2.4V30.54A0,0,0,0,1,34.19,30.54Z"/><path class="cls-7" d="M36.59,22.26H71.81a2.4,2.4,0,0,1,2.4,2.4v5.88a0,0,0,0,1,0,0h-40a0,0,0,0,1,0,0V24.65A2.4,2.4,0,0,1,36.59,22.26Z"/><circle class="cls-11" cx="38.33" cy="26.4" r="1.38"/><circle class="cls-12" cx="43.85" cy="26.4" r="1.38"/><circle class="cls-13" cx="49.37" cy="26.4" r="1.38"/><rect class="cls-13" x="46.61" y="38.81" width="5.52" height="5.52" rx="1" ry="1"/><rect class="cls-11" x="55.58" y="38.81" width="5.52" height="5.52" rx="1" ry="1"/><rect class="cls-13" x="64.55" y="38.81" width="5.52" height="5.52" rx="1" ry="1"/><rect class="cls-11" x="46.61" y="47.1" width="5.52" height="5.52" rx="1" ry="1"/><rect class="cls-13" x="55.58" y="47.1" width="5.52" height="5.52" rx="1" ry="1"/><rect class="cls-14" x="64.55" y="47.1" width="5.52" height="5.52" rx="1" ry="1"/><rect class="cls-15" x="38.33" y="33.3" width="5.52" height="2.76" rx="1" ry="1"/><rect class="cls-16" x="46.61" y="33.3" width="23.46" height="2.76" rx="1" ry="1"/><line class="cls-3" x1="38.33" y1="38.81" x2="43.85" y2="38.81"/><line class="cls-3" x1="38.33" y1="41.57" x2="43.85" y2="41.57"/><line class="cls-3" x1="38.33" y1="44.34" x2="43.85" y2="44.34"/><line class="cls-3" x1="38.33" y1="47.1" x2="43.85" y2="47.1"/><line class="cls-3" x1="38.33" y1="49.85" x2="43.85" y2="49.85"/><line class="cls-3" x1="38.33" y1="52.61" x2="41.78" y2="52.61"/><path class="cls-17" d="M83.18,67.72c-.2.73-.6.76-.89.06L77.76,56.91c-.29-.7,0-1,.75-.74L89.37,60.7c.7.29.67.69-.06.89l-3.48.95a2.7,2.7,0,0,0-1.7,1.69Z"/><circle class="cls-10" cx="47.3" cy="67.1" r="0.58"/></svg>
